school/img/country/BW.svg

<svg width="13" height="12" fill="none" xmlns="http://www.w3.org/2000/svg"><rect width="13" height="12" rx="2" fill="#fff"/><mask id="a" maskUnits="userSpaceOnUse" x="0" y="0" width="13" height="12"><rect width="13" height="12" rx="2" fill="#fff"/></mask><g mask="url(#a)" fill-rule="evenodd" clip-rule="evenodd"><path d="M0 4h13V0H0v4zm0 8h13V8H0v4z" fill="#8BBDEA"/><path d="M0 8h13V4H0v4z" fill="#fff"/><path d="M0 7.2h13V4.8H0v2.4z" fill="#262626"/></g></svg>

<svg width="13" height="12" viewBox="0 0 13 12" fill="none" xmlns="http://www.w3.org/2000/svg">
<rect width="13" height="12" rx="2" fill="white"/>
<mask id="mask0" mask-type="alpha" maskUnits="userSpaceOnUse" x="0" y="0" width="13" height="12">
<rect width="13" height="12" rx="2" fill="white"/>
</mask>
<g mask="url(#mask0)">
<path fill-rule="evenodd" clip-rule="evenodd" d="M0 4H13V0H0V4Z" fill="#8BBDEA"/>
<path fill-rule="evenodd" clip-rule="evenodd" d="M0 12H13V8H0V12Z" fill="#8BBDEA"/>
<path fill-rule="evenodd" clip-rule="evenodd" d="M0 8H13V4H0V8Z" fill="white"/>
<path fill-rule="evenodd" clip-rule="evenodd" d="M0 7.19999H13V4.79999H0V7.19999Z" fill="#262626"/>
</g>
</svg>
